src/icons/solid/symbols/attachment.svg

<svg width="24" height="24" viewBox="0 0 24 24" fill="none" xmlns="http://www.w3.org/2000/svg">
<g clip-path="url(#clip0_402_236)">
<path d="M8.05099 23C6.16869 23 4.39831 22.2845 3.06544 20.9825C1.73257 19.6806 1 17.9514 1 16.1128C1 14.2743 1.73257 12.545 3.06544 11.2431L10.9914 3.50128C12.9246 1.54346 16.1398 1.49377 18.1544 3.39196C19.1311 4.31621 19.6805 5.54855 19.7009 6.87033C19.7212 8.1921 19.2227 9.44432 18.2764 10.3984C18.2358 10.4381 18.1951 10.4878 18.1442 10.5276L10.2487 18.2495C9.63822 18.826 8.81408 19.134 8.03064 19.1142C7.2065 19.1042 6.43323 18.7763 5.85328 18.1899C4.69338 17.0172 4.6832 15.1687 5.85328 13.9861L13.7895 6.23428C14.227 5.80694 14.9392 5.80694 15.3767 6.23428C15.8142 6.66162 15.8142 7.3573 15.3767 7.78464L7.45069 15.5265C7.14545 15.8346 7.14545 16.3514 7.46086 16.6793C7.78645 17.0172 8.33588 17.0172 8.67164 16.6992L16.5773 8.96728L16.6587 8.88778C17.1878 8.35112 17.4625 7.65544 17.4523 6.92002C17.4421 6.18459 17.1369 5.48892 16.5875 4.97213C16.038 4.45535 15.3156 4.18702 14.5729 4.19695C13.82 4.20689 13.1078 4.50504 12.5787 5.0417L4.6425 12.7935C3.73696 13.678 3.22823 14.8606 3.22823 16.1128C3.22823 17.3651 3.72679 18.5477 4.6425 19.4322C5.54804 20.3167 6.75882 20.8136 8.04081 20.8136C9.32281 20.8136 10.5336 20.3266 11.4391 19.4322L21.0846 10.0108C21.5221 9.58345 22.2344 9.58345 22.6719 10.0108C23.1094 10.4381 23.1094 11.1338 22.6719 11.5611L13.0264 20.9825C11.6935 22.2845 9.92311 23 8.04081 23H8.05099Z" fill="#212121"/>
</g>
<defs>
<clipPath id="clip0_402_236">
<rect width="24" height="24" fill="white"/>
</clipPath>
</defs>
</svg>

<svg xmlns="http://www.w3.org/2000/svg" width="24" height="24" fill="none" viewBox="0 0 24 24"><g clip-path="url(#a)"><path fill="currentColor" d="M8.051 23a7.1 7.1 0 0 1-4.986-2.017A6.76 6.76 0 0 1 1 16.113c0-1.839.733-3.568 2.065-4.87l7.926-7.742c1.934-1.958 5.149-2.007 7.163-.109a4.86 4.86 0 0 1 1.547 3.478 4.86 4.86 0 0 1-1.425 3.528c-.04.04-.08.09-.132.13L10.25 18.25a3.17 3.17 0 0 1-2.218.864 3.1 3.1 0 0 1-2.178-.924 2.965 2.965 0 0 1 0-4.204l7.937-7.752a1.143 1.143 0 0 1 1.587 0 1.08 1.08 0 0 1 0 1.55L7.45 15.528c-.306.308-.306.824.01 1.152a.87.87 0 0 0 1.21.02l7.906-7.732.082-.08a2.72 2.72 0 0 0 .793-1.967 2.7 2.7 0 0 0-.865-1.948 2.87 2.87 0 0 0-2.014-.775 2.84 2.84 0 0 0-1.994.845l-7.937 7.752a4.62 4.62 0 0 0-1.414 3.319c0 1.252.499 2.435 1.414 3.32a4.85 4.85 0 0 0 3.399 1.38 4.8 4.8 0 0 0 3.398-1.38l9.646-9.422a1.143 1.143 0 0 1 1.587 0 1.08 1.08 0 0 1 0 1.55l-9.646 9.422A7.1 7.1 0 0 1 8.041 23z"/></g><defs><clipPath id="a"><path fill="currentColor" d="M0 0h24v24H0z"/></clipPath></defs></svg>
